X:141
T:A Rowing Time Piece
T:Iorram iomraimh
R:Jig
S:Simon Fraser Collection
N:No.152
O:Scottish
M:6/8
L:1/8
K:D
A|:F2F F2A|G2F E2D|DFA d2e|f2e d2F|ABc d2e|fdf e2c|d>cB A2G|
d2F E2D:|
ADE D2C|[D2F2][DF] ABc|d>cB A2G|[A,2F2][A,F] ABc|d>ef D2C|
|[D2F2][DF] ABc|dcB AGF|FdF E2D:|

